Newaita-dark/apps/22/com.github.bcedu.museic.svg

<svg height="22pt" viewBox="0 0 22 22" width="22pt" xmlns="http://www.w3.org/2000/svg" xmlns:xlink="http://www.w3.org/1999/xlink"><linearGradient id="a"><stop offset="0" stop-opacity=".313725"/><stop offset=".222222" stop-opacity=".27451"/><stop offset="1" stop-opacity="0"/></linearGradient><radialGradient id="b" cx="450.90894" cy="189.57936" gradientTransform="matrix(.00000011 -.0752025 -.0870201 -.0000001 22.841565 53.501197)" gradientUnits="userSpaceOnUse" r="21.166656" xlink:href="#a"/><radialGradient id="c" cx="450.90894" cy="189.57936" gradientTransform="matrix(-.00000011 .0752025 .0870201 .0000001 -10.562072 -14.95455)" gradientUnits="userSpaceOnUse" r="21.166656" xlink:href="#a"/><radialGradient id="d" cx="450.90894" cy="189.57936" gradientTransform="matrix(-.00000011 -.0752025 .0870201 -.0000001 -10.562072 53.501197)" gradientUnits="userSpaceOnUse" r="21.166656" xlink:href="#a"/><radialGradient id="e" cx="450.90894" cy="189.57936" gradientTransform="matrix(.00000011 .0752025 -.0870201 .0000001 22.841564 -14.95455)" gradientUnits="userSpaceOnUse" r="21.166656" xlink:href="#a"/><linearGradient id="f" gradientTransform="matrix(.00236187 0 0 .060162 5.536706 5.225492)" gradientUnits="userSpaceOnUse" x1="255.32306" x2="255.32304" y1="233.5" y2="254.66666"><stop offset="0" stop-opacity=".27451"/><stop offset="1" stop-opacity="0"/></linearGradient><linearGradient id="g" gradientUnits="userSpaceOnUse" x1="10.91507763515" x2="10.91507763515" y1="19.2732836531" y2="1.99105176257"><stop offset="0" stop-color="#424242"/><stop offset="1" stop-color="#616161"/></linearGradient><path d="m6.550781 19.273438h1.636719v-1.273438h-1.636719zm0 0" fill="url(#b)"/><path d="m5.730469 19.273438h-1.636719v1.273437h1.636719zm0 0" fill="url(#c)"/><path d="m5.730469 19.273438h-1.636719v-1.273438h1.636719zm0 0" fill="url(#d)"/><path d="m6.550781 19.273438h1.636719v1.273437h-1.636719zm0 0" fill="url(#e)"/><path d="m5.730469 18.953125h.820312v1.59375h-.820312zm0 0" fill="url(#f)"/><path d="m8.1875 1.992188c-.597656 0-1.078125.558593-1.078125 1.253906v10.734375c-.335937-.097657-.699219-.152344-1.074219-.152344-1.789062 0-3.230468 1.199219-3.230468 2.691406 0 1.488281 1.441406 2.691407 3.230468 2.691407 1.789063 0 3.226563-1.203126 3.226563-2.691407v-11.839843c0-.296876.242187-.535157.539062-.535157h5.378907c.300781 0 .539062.238281.539062.535157v6.074218c-.335938-.101562-.699219-.152344-1.074219-.152344-1.789062 0-3.230469 1.199219-3.230469 2.6875 0 1.492188 1.441407 2.691407 3.230469 2.691407 1.785157 0 3.226563-1.199219 3.226563-2.691407v-10.042968c0-.695313-.480469-1.253906-1.074219-1.253906zm0 0" fill="url(#g)"/><path d="m8.1875 1.992188c-.597656 0-1.078125.558593-1.078125 1.253906v.226562c0-.695312.480469-1.253906 1.078125-1.253906h8.609375c.59375 0 1.074219.558594 1.074219 1.253906v-.226562c0-.695313-.480469-1.253906-1.074219-1.253906zm6.457031 8.609374c-1.789062 0-3.230469 1.199219-3.230469 2.6875 0 .039063 0 .078126.003907.113282.070312-1.4375 1.484375-2.574219 3.226562-2.574219.375 0 .738281.054687 1.074219.152344v-.226563c-.335938-.101562-.699219-.152344-1.074219-.152344zm-8.609375 3.226563c-1.789062 0-3.230468 1.199219-3.230468 2.691406 0 .035157.003906.074219.003906.113281.070312-1.4375 1.484375-2.578124 3.226562-2.578124.375 0 .738282.054687 1.074219.152343v-.226562c-.335937-.097657-.699219-.152344-1.074219-.152344zm0 0" fill="#fff" fill-opacity=".313725"/><path d="m9.800781 3.796875c-.296875 0-.539062.238281-.539062.535156v.347657c0-.296876.242187-.535157.539062-.535157h5.378907c.300781 0 .539062.238281.539062.535157v-.347657c0-.296875-.238281-.535156-.539062-.535156zm8.070313 9.144531c0 1.492188-1.441406 2.691406-3.226563 2.691406-1.71875 0-3.117187-1.105468-3.222656-2.515624-.003906.058593-.007813.113281-.007813.171874 0 1.492188 1.441407 2.691407 3.230469 2.691407 1.785157 0 3.226563-1.199219 3.226563-2.691407zm-8.609375 3.230469c0 1.488281-1.4375 2.691406-3.226563 2.691406-1.71875 0-3.117187-1.109375-3.222656-2.519531-.003906.058594-.007812.117188-.007812.175781 0 1.488281 1.441406 2.691407 3.230468 2.691407 1.789063 0 3.226563-1.203126 3.226563-2.691407zm0 0" fill-opacity=".235294"/><path d="m190.52726-168.640791c-13.907763 0-25.088513 12.998759-25.088513 29.179032v249.794328c-7.817435-2.272511-16.271174-3.545116-24.997613-3.545116-41.632388 0-75.174639 27.906426-75.174639 62.630382 0 34.633057 33.542251 62.630383 75.174639 62.630383s75.083739-27.997326 75.083739-62.630383v-275.519143c0-6.908432 5.635825-12.453357 12.544257-12.453357h125.169865c6.999331 0 12.544256 5.544925 12.544256 12.453357v141.350138c-7.817435-2.363411-16.271173-3.545116-24.997613-3.545116-41.632388 0-75.174639 27.906426-75.174639 62.539482 0 34.723957 33.542251 62.630383 75.174639 62.630383 41.541488 0 75.083739-27.906426 75.083739-62.630383v-233.704955c0-16.180273-11.18075-29.179032-24.997612-29.179032zm0 0" fill="none" stroke="#212121" stroke-linecap="round" stroke-width="3" transform="matrix(.0429729 0 0 .0429729 0 9.239163)"/></svg>

<?xml version="1.0" encoding="UTF-8"?>
<svg xmlns="http://www.w3.org/2000/svg" xmlns:xlink="http://www.w3.org/1999/xlink" width="22pt" height="22pt" viewBox="0 0 22 22" version="1.1">
<defs>
<radialGradient id="radial0" gradientUnits="userSpaceOnUse" cx="450.90894" cy="189.57936" fx="450.90894" fy="189.57936" r="21.166656" gradientTransform="matrix(0.000000107768,-0.0752025,-0.0870201,-0.0000000977309,22.841565,53.501197)">
<stop offset="0" style="stop-color:rgb(0%,0%,0%);stop-opacity:0.313725;"/>
<stop offset="0.222222" style="stop-color:rgb(0%,0%,0%);stop-opacity:0.27451;"/>
<stop offset="1" style="stop-color:rgb(0%,0%,0%);stop-opacity:0;"/>
</radialGradient>
<radialGradient id="radial1" gradientUnits="userSpaceOnUse" cx="450.90894" cy="189.57936" fx="450.90894" fy="189.57936" r="21.166656" gradientTransform="matrix(-0.000000107768,0.0752025,0.0870201,0.0000000977309,-10.562072,-14.95455)">
<stop offset="0" style="stop-color:rgb(0%,0%,0%);stop-opacity:0.313725;"/>
<stop offset="0.222222" style="stop-color:rgb(0%,0%,0%);stop-opacity:0.27451;"/>
<stop offset="1" style="stop-color:rgb(0%,0%,0%);stop-opacity:0;"/>
</radialGradient>
<radialGradient id="radial2" gradientUnits="userSpaceOnUse" cx="450.90894" cy="189.57936" fx="450.90894" fy="189.57936" r="21.166656" gradientTransform="matrix(-0.000000107768,-0.0752025,0.0870201,-0.0000000977309,-10.562072,53.501197)">
<stop offset="0" style="stop-color:rgb(0%,0%,0%);stop-opacity:0.313725;"/>
<stop offset="0.222222" style="stop-color:rgb(0%,0%,0%);stop-opacity:0.27451;"/>
<stop offset="1" style="stop-color:rgb(0%,0%,0%);stop-opacity:0;"/>
</radialGradient>
<radialGradient id="radial3" gradientUnits="userSpaceOnUse" cx="450.90894" cy="189.57936" fx="450.90894" fy="189.57936" r="21.166656" gradientTransform="matrix(0.000000107768,0.0752025,-0.0870201,0.0000000977309,22.841564,-14.95455)">
<stop offset="0" style="stop-color:rgb(0%,0%,0%);stop-opacity:0.313725;"/>
<stop offset="0.222222" style="stop-color:rgb(0%,0%,0%);stop-opacity:0.27451;"/>
<stop offset="1" style="stop-color:rgb(0%,0%,0%);stop-opacity:0;"/>
</radialGradient>
<linearGradient id="linear0" gradientUnits="userSpaceOnUse" x1="255.32306" y1="233.5" x2="255.32304" y2="254.66666" gradientTransform="matrix(0.00236187,0,0,0.060162,5.536706,5.225492)">
<stop offset="0" style="stop-color:rgb(0%,0%,0%);stop-opacity:0.27451;"/>
<stop offset="1" style="stop-color:rgb(0%,0%,0%);stop-opacity:0;"/>
</linearGradient>
<linearGradient id="linear1" gradientUnits="userSpaceOnUse" x1="981.43005" y1="1457.5077" x2="981.43005" y2="815.11719" gradientTransform="matrix(0.026903,0,0,0.026903,-15.488335,-19.938046)">
<stop offset="0" style="stop-color:rgb(25.882353%,25.882353%,25.882353%);stop-opacity:1;"/>
<stop offset="1" style="stop-color:rgb(38.039216%,38.039216%,38.039216%);stop-opacity:1;"/>
</linearGradient>
</defs>
<g id="surface1">
<path style=" stroke:none;fill-rule:nonzero;fill:url(#radial0);" d="M 6.550781 19.273438 L 8.1875 19.273438 L 8.1875 18 L 6.550781 18 Z M 6.550781 19.273438 "/>
<path style=" stroke:none;fill-rule:nonzero;fill:url(#radial1);" d="M 5.730469 19.273438 L 4.09375 19.273438 L 4.09375 20.546875 L 5.730469 20.546875 Z M 5.730469 19.273438 "/>
<path style=" stroke:none;fill-rule:nonzero;fill:url(#radial2);" d="M 5.730469 19.273438 L 4.09375 19.273438 L 4.09375 18 L 5.730469 18 Z M 5.730469 19.273438 "/>
<path style=" stroke:none;fill-rule:nonzero;fill:url(#radial3);" d="M 6.550781 19.273438 L 8.1875 19.273438 L 8.1875 20.546875 L 6.550781 20.546875 Z M 6.550781 19.273438 "/>
<path style=" stroke:none;fill-rule:nonzero;fill:url(#linear0);" d="M 5.730469 18.953125 L 6.550781 18.953125 L 6.550781 20.546875 L 5.730469 20.546875 Z M 5.730469 18.953125 "/>
<path style=" stroke:none;fill-rule:nonzero;fill:url(#linear1);" d="M 8.1875 1.992188 C 7.589844 1.992188 7.109375 2.550781 7.109375 3.246094 L 7.109375 13.980469 C 6.773438 13.882812 6.410156 13.828125 6.035156 13.828125 C 4.246094 13.828125 2.804688 15.027344 2.804688 16.519531 C 2.804688 18.007812 4.246094 19.210938 6.035156 19.210938 C 7.824219 19.210938 9.261719 18.007812 9.261719 16.519531 L 9.261719 4.679688 C 9.261719 4.382812 9.503906 4.144531 9.800781 4.144531 L 15.179688 4.144531 C 15.480469 4.144531 15.71875 4.382812 15.71875 4.679688 L 15.71875 10.753906 C 15.382812 10.652344 15.019531 10.601562 14.644531 10.601562 C 12.855469 10.601562 11.414062 11.800781 11.414062 13.289062 C 11.414062 14.78125 12.855469 15.980469 14.644531 15.980469 C 16.429688 15.980469 17.871094 14.78125 17.871094 13.289062 L 17.871094 3.246094 C 17.871094 2.550781 17.390625 1.992188 16.796875 1.992188 Z M 8.1875 1.992188 "/>
<path style=" stroke:none;fill-rule:nonzero;fill:rgb(100%,100%,100%);fill-opacity:0.313725;" d="M 8.1875 1.992188 C 7.589844 1.992188 7.109375 2.550781 7.109375 3.246094 L 7.109375 3.472656 C 7.109375 2.777344 7.589844 2.21875 8.1875 2.21875 L 16.796875 2.21875 C 17.390625 2.21875 17.871094 2.777344 17.871094 3.472656 L 17.871094 3.246094 C 17.871094 2.550781 17.390625 1.992188 16.796875 1.992188 Z M 14.644531 10.601562 C 12.855469 10.601562 11.414062 11.800781 11.414062 13.289062 C 11.414062 13.328125 11.414062 13.367188 11.417969 13.402344 C 11.488281 11.964844 12.902344 10.828125 14.644531 10.828125 C 15.019531 10.828125 15.382812 10.882812 15.71875 10.980469 L 15.71875 10.753906 C 15.382812 10.652344 15.019531 10.601562 14.644531 10.601562 Z M 6.035156 13.828125 C 4.246094 13.828125 2.804688 15.027344 2.804688 16.519531 C 2.804688 16.554688 2.808594 16.59375 2.808594 16.632812 C 2.878906 15.195312 4.292969 14.054688 6.035156 14.054688 C 6.410156 14.054688 6.773438 14.109375 7.109375 14.207031 L 7.109375 13.980469 C 6.773438 13.882812 6.410156 13.828125 6.035156 13.828125 Z M 6.035156 13.828125 "/>
<path style=" stroke:none;fill-rule:nonzero;fill:rgb(0%,0%,0%);fill-opacity:0.235294;" d="M 9.800781 3.796875 C 9.503906 3.796875 9.261719 4.035156 9.261719 4.332031 L 9.261719 4.679688 C 9.261719 4.382812 9.503906 4.144531 9.800781 4.144531 L 15.179688 4.144531 C 15.480469 4.144531 15.71875 4.382812 15.71875 4.679688 L 15.71875 4.332031 C 15.71875 4.035156 15.480469 3.796875 15.179688 3.796875 Z M 17.871094 12.941406 C 17.871094 14.433594 16.429688 15.632812 14.644531 15.632812 C 12.925781 15.632812 11.527344 14.527344 11.421875 13.117188 C 11.417969 13.175781 11.414062 13.230469 11.414062 13.289062 C 11.414062 14.78125 12.855469 15.980469 14.644531 15.980469 C 16.429688 15.980469 17.871094 14.78125 17.871094 13.289062 Z M 9.261719 16.171875 C 9.261719 17.660156 7.824219 18.863281 6.035156 18.863281 C 4.316406 18.863281 2.917969 17.753906 2.8125 16.34375 C 2.808594 16.402344 2.804688 16.460938 2.804688 16.519531 C 2.804688 18.007812 4.246094 19.210938 6.035156 19.210938 C 7.824219 19.210938 9.261719 18.007812 9.261719 16.519531 Z M 9.261719 16.171875 "/>
<path style="fill:none;stroke-width:3;stroke-linecap:round;stroke-linejoin:miter;stroke:rgb(12.941176%,12.941176%,12.941176%);stroke-opacity:1;stroke-miterlimit:4;" d="M 190.52726 -168.640791 C 176.619497 -168.640791 165.438747 -155.642032 165.438747 -139.461759 L 165.438747 110.332569 C 157.621312 108.060058 149.167573 106.787453 140.441134 106.787453 C 98.808746 106.787453 65.266495 134.693879 65.266495 169.417835 C 65.266495 204.050892 98.808746 232.048218 140.441134 232.048218 C 182.073522 232.048218 215.524873 204.050892 215.524873 169.417835 L 215.524873 -106.101308 C 215.524873 -113.00974 221.160698 -118.554665 228.06913 -118.554665 L 353.238995 -118.554665 C 360.238326 -118.554665 365.783251 -113.00974 365.783251 -106.101308 L 365.783251 35.24883 C 357.965816 32.885419 349.512078 31.703714 340.785638 31.703714 C 299.15325 31.703714 265.610999 59.61014 265.610999 94.243196 C 265.610999 128.967153 299.15325 156.873579 340.785638 156.873579 C 382.327126 156.873579 415.869377 128.967153 415.869377 94.243196 L 415.869377 -139.461759 C 415.869377 -155.642032 404.688627 -168.640791 390.871765 -168.640791 Z M 190.52726 -168.640791 " transform="matrix(0.0429729,0,0,0.0429729,0,9.239163)"/>
</g>
</svg>
